src/actions/24/object-rotate-left.svg

<svg xmlns="http://www.w3.org/2000/svg" viewBox="0 0 24 24">
  <defs id="defs3051">
    <style type="text/css" id="current-color-scheme">
      .ColorScheme-Text {
        color:#2e3440;
      }
      </style>
  </defs>
 <path style="fill:currentColor;fill-opacity:1;stroke:none" 
     d="M 13.400391 4 L 10.107422 7.2929688 L 9.9003906 7.5 L 10.107422 7.7070312 L 13.400391 11 L 14.107422 10.292969 L 11.814453 8 L 14.099609 8 L 15 8 L 15 7 L 14.099609 7 L 11.814453 7 L 14.107422 4.7070312 L 13.400391 4 z M 16.5 7 C 16.223 7 16 7.223 16 7.5 C 16 7.777 16.223 8 16.5 8 C 16.777 8 17 7.777 17 7.5 C 17 7.223 16.777 7 16.5 7 z M 7.9492188 9 L 3 13.949219 L 9.0507812 20 L 14 15.050781 L 7.9492188 9 z M 19.5 9 C 19.223 9 19 9.223 19 9.5 C 19 9.777 19.223 10 19.5 10 C 19.777 10 20 9.777 20 9.5 C 20 9.223 19.777 9 19.5 9 z M 7.9492188 10.414062 L 12.726562 15.191406 L 9.1914062 18.726562 L 4.4140625 13.949219 L 7.9492188 10.414062 z M 20.5 12 C 20.223 12 20 12.223 20 12.5 C 20 12.777 20.223 13 20.5 13 C 20.777 13 21 12.777 21 12.5 C 21 12.223 20.777 12 20.5 12 z M 19.5 15 C 19.223 15 19 15.223 19 15.5 C 19 15.777 19.223 16 19.5 16 C 19.777 16 20 15.777 20 15.5 C 20 15.223 19.777 15 19.5 15 z M 16.5 17 C 16.223 17 16 17.223 16 17.5 C 16 17.777 16.223 18 16.5 18 C 16.777 18 17 17.777 17 17.5 C 17 17.223 16.777 17 16.5 17 z "
     class="ColorScheme-Text"
     />
</svg>

<svg viewBox="0 0 24 24" xmlns="http://www.w3.org/2000/svg">
 <defs>
  <style type="text/css">.ColorScheme-Text {
        color:#2e3440;
      }</style>
 </defs>
 <path class="ColorScheme-Text" d="m13.4 4-3.5 3.5 3.5 3.5 0.70703-0.70703-2.293-2.293h2.2852 0.90039v-1h-0.90039-2.2852l2.293-2.293-0.70703-0.70703zm3.0996 3c-0.277 0-0.5 0.223-0.5 0.5s0.223 0.5 0.5 0.5 0.5-0.223 0.5-0.5-0.223-0.5-0.5-0.5zm-8.5508 2-4.9492 4.9492 6.0508 6.0508 4.9492-4.9492-6.0508-6.0508zm11.551 0c-0.277 0-0.5 0.223-0.5 0.5s0.223 0.5 0.5 0.5 0.5-0.223 0.5-0.5-0.223-0.5-0.5-0.5zm-11.551 1.4141 4.7773 4.7773-3.5352 3.5352-4.7773-4.7773 3.5352-3.5352zm12.551 1.5859c-0.277 0-0.5 0.223-0.5 0.5s0.223 0.5 0.5 0.5 0.5-0.223 0.5-0.5-0.223-0.5-0.5-0.5zm-1 3c-0.277 0-0.5 0.223-0.5 0.5s0.223 0.5 0.5 0.5 0.5-0.223 0.5-0.5-0.223-0.5-0.5-0.5zm-3 2c-0.277 0-0.5 0.223-0.5 0.5s0.223 0.5 0.5 0.5 0.5-0.223 0.5-0.5-0.223-0.5-0.5-0.5z" fill="currentColor"/>
</svg>
